resources/svg/secure-payment-line.svg

<svg fill="currentColor" viewBox="0 0 24 24" xmlns="http://www.w3.org/2000/svg"><path d="M11.0049 2L18.3032 4.28071C18.7206 4.41117 19.0049 4.79781 19.0049 5.23519V7H21.0049C21.5572 7 22.0049 7.44772 22.0049 8V16C22.0049 16.5523 21.5572 17 21.0049 17L17.7848 17.0011C17.3982 17.5108 16.9276 17.9618 16.3849 18.3318L11.0049 22L5.62486 18.3318C3.98563 17.2141 3.00488 15.3584 3.00488 13.3744V5.23519C3.00488 4.79781 3.28913 4.41117 3.70661 4.28071L11.0049 2ZM11.0049 4.094L5.00488 5.97V13.3744C5.00488 14.6193 5.58406 15.7884 6.56329 16.5428L6.75154 16.6793L11.0049 19.579L14.7869 17H10.0049C9.4526 17 9.00488 16.5523 9.00488 16V8C9.00488 7.44772 9.4526 7 10.0049 7H17.0049V5.97L11.0049 4.094ZM11.0049 12V15H20.0049V12H11.0049ZM11.0049 10H20.0049V9H11.0049V10Z"/></svg>

<svg xmlns="http://www.w3.org/2000/svg" viewBox="0 0 24 24" fill="currentColor">
    <g>
        <path fill="none" d="M0 0h24v24H0z"/>
        <path fill-rule="nonzero" d="M11 2l7.298 2.28a1 1 0 0 1 .702.955V7h2a1 1 0 0 1 1 1v8a1 1 0 0 1-1 1l-3.22.001c-.387.51-.857.96-1.4 1.33L11 22l-5.38-3.668A6 6 0 0 1 3 13.374V5.235a1 1 0 0 1 .702-.954L11 2zm0 2.094L5 5.97v7.404a4 4 0 0 0 1.558 3.169l.189.136L11 19.58 14.782 17H10a1 1 0 0 1-1-1V8a1 1 0 0 1 1-1h7V5.97l-6-1.876zM11 12v3h9v-3h-9zm0-2h9V9h-9v1z"/>
    </g>
</svg>
